X:1
T:1 Galopp  FBb (gL07809)
T:Hanny Christen. Bd.V  Basel II, Jura. S.183  (gL07809) orig. F,Bb
S: Basel II. "Mundwilermusig", Tenniken. S.183-219.
S:Überliefert durch Hermann und Johannes Mundwiler und Ernst Otter.
%P:ABC
R:Galopp
M:2/4
L:1/8
K:F %%MIDI gchordon
[P:A]  "F"ca!>!f2 | Ad !>!c2 | "C7"G>A B>c | "F"d>cc2 | ca!>!f2 | Ad !>!c2 | (3"C7"edc (3bag | "F"ff fz || 
[P:B] "C7"G>A B>G | "F"A>cf2 | "Bb"a>g f>d | "F"d>cc2 | caf2 | Adc2 | (3"C7"edc (3bag | "F"ff  fz || [K:Bb] 
[P:C] "F7"a>g f>e | "Bb"d>gf2 | "F7"g>f c>f | "Bb"d>e g>f | "F7"a>g f>e | "Bb"d>gf2 | "F7"a>g a>f | "Bb"b2z2 |] 
W:
%W:Parts: ABC
%W:Anmerkung H.C.: 
%W:Anmerkung Hrsg,:
% gL07809
% August 4, 2018 (Can you read Chinese?)



